X:14
T:Dan Mac's
Z: id:dc-polka-42
M:2/4
L:1/8
K:D Major
DF AF/A/|dc Bc|EF GF/G/|BA F2|!
DF AF/A/|dc Bc|EF GF/E/|DF D2:|!
fA fA|fA f2|eA eA|B/c/d e2|!
fA fA|fA f2|eA B/c/d|ed d2:|!